X: 38061
T: Spirit Of A Cherry Tree, The
R: reel
M: 4/4
K: Edorian
|:eedB GABA|Beed c2 Ac|B2 GB AFFA|GGFE DFAd|
eBGF E3 D|GABe dA (3Bcd|c2 Ac BG G2|1 AFGF Eggf:|2 AFGF EGBf||
e2 ab ggfe|decA BE E2|G2 AB ADDE|FG (3AGF EGBf|
e2 ab ggfe|decA BE E2|G2 AB ADDE|FG (3AGF EGBf|
ea a2 ggfe|decA BE E2|G2 AB ADDE|FG (3AGF EGBf|
eBGF E3 D|GABe dA (3Bcd|c2 Ac BG G2|AFGF E2 gf|

